public/img/filter/bread.svg

<svg width="100" height="100" viewBox="0 0 100 100" fill="none" xmlns="http://www.w3.org/2000/svg">
<path d="M30.3448 48.9663L30.7531 48.8503L28.6576 46.7749C23.6331 41.7992 23.6331 33.7019 28.6576 28.7263C32.7048 24.7177 39.0255 23.8411 44.0271 26.5952L46.8401 28.1428C51.8855 30.9186 56.5123 34.3758 60.5938 38.4184C63.6618 41.4571 66.4053 44.8276 68.7681 48.4328L70.6552 48.9663C76.1574 50.5233 80 55.5687 80 61.2371C80 68.275 74.2199 74 67.1142 74H33.8848C26.7801 74 21 68.275 21 61.2371C21 55.5687 24.8426 50.5233 30.3448 48.9663V48.9663ZM30.6218 50.8598C30.7417 53.3519 30.9681 55.859 31.3231 58.3238C31.3431 58.4651 31.5915 58.4651 31.6124 58.3238C31.9911 55.696 32.23 53.0239 32.3423 50.3612L30.8682 50.7788C30.7845 50.8023 30.7045 50.8344 30.6218 50.8598V50.8598ZM43.1031 28.2427C43.027 28.2013 42.948 28.1673 42.8709 28.1278C41.1751 29.9761 39.545 31.9073 38.0377 33.898C37.9949 33.9555 38.0006 34.0356 38.051 34.0865C38.1024 34.1374 38.1833 34.143 38.2413 34.0997C40.3872 32.5058 42.4646 30.7838 44.442 28.9808L43.1031 28.2427ZM46.1901 29.9469C44.029 31.9469 41.7461 33.8518 39.3842 35.6068C39.0207 35.8773 38.5887 36.0102 38.1566 36.0102C37.6275 36.0102 37.1003 35.8104 36.7054 35.4192C35.9889 34.7104 35.908 33.57 36.5151 32.7669C37.9216 30.9092 39.4404 29.1108 41.0105 27.3709C37.186 26.2088 32.9085 27.1843 30.0042 30.0609C25.7219 34.3023 25.7219 41.2026 30.0042 45.444L32.8466 48.2594L33.4385 48.0916C38.7466 46.5892 44.2451 45.8135 49.7511 45.7485C51.4821 43.6504 53.3282 41.6154 55.2581 39.703L57.1756 37.8038C56.2335 36.9546 55.2666 36.1346 54.2722 35.3476L53.9125 35.7039C51.1699 38.4202 48.2057 40.966 45.1034 43.2705C44.7399 43.541 44.3069 43.6739 43.8758 43.6739C43.3467 43.6739 42.8195 43.4741 42.4246 43.083C41.708 42.3742 41.6262 41.2337 42.2343 40.4307C44.481 37.4626 46.959 34.6284 49.596 31.9922C48.4854 31.2721 47.3483 30.5925 46.1901 29.9469V29.9469ZM41.9355 48.2188C41.2998 48.3093 40.6651 48.4073 40.0332 48.5176C40.0351 52.2585 40.3063 56.0325 40.8402 59.7376C40.8602 59.8789 41.1085 59.8789 41.1295 59.7376C41.6633 56.0221 41.9355 52.2359 41.9355 48.4846V48.2188ZM51.4516 47.625C51.1347 47.6203 50.8178 47.609 50.5 47.609C50.1822 47.609 49.8653 47.6203 49.5484 47.625V50.3688C49.5484 54.1201 49.8205 57.9062 50.3554 61.6217C50.3753 61.7631 50.6237 61.7631 50.6446 61.6217C51.1795 57.9072 51.4516 54.121 51.4516 50.3697V47.625ZM51.1975 33.0619C48.5273 35.7076 46.0246 38.5673 43.7578 41.5608C43.715 41.6183 43.7207 41.6984 43.7711 41.7493C43.8216 41.8002 43.9034 41.8058 43.9615 41.7625C46.9924 39.5108 49.8881 37.0243 52.5669 34.3702L52.7563 34.1826C52.2424 33.8018 51.7238 33.4267 51.1975 33.0619V33.0619ZM58.563 39.0951L56.6036 41.0358C55.0849 42.5401 53.6365 44.1358 52.2376 45.7645C52.8905 45.7824 53.5423 45.8125 54.1942 45.8502C55.4788 44.7315 56.7426 43.5646 57.9502 42.3685L59.9029 40.4344C59.6821 40.2082 59.4728 39.9717 59.2482 39.7502C59.0226 39.5277 58.7905 39.3138 58.563 39.0951V39.0951ZM64.6781 46.3677C64.4097 46.6335 64.1518 46.9097 63.8873 47.1792C64.5734 47.3291 65.2567 47.4893 65.938 47.6627C65.5859 47.166 65.2224 46.6787 64.8551 46.1924L64.6781 46.3677ZM61.6738 46.7372C62.2201 46.1632 62.7701 45.592 63.3325 45.035L63.6922 44.6787C62.8967 43.6937 62.0669 42.7371 61.2114 41.8039L59.2958 43.7022C58.4888 44.5015 57.6533 45.2828 56.8082 46.0529C58.4384 46.216 60.0609 46.4469 61.6738 46.7372V46.7372ZM59.0645 48.2188V48.4846C59.0645 52.2359 59.3367 56.0221 59.8715 59.7376C59.8915 59.8789 60.1398 59.8789 60.1608 59.7376C60.6946 56.0325 60.9658 52.2585 60.9677 48.5176C60.3349 48.4073 59.7002 48.3093 59.0645 48.2188V48.2188ZM68.6577 50.3622C68.77 53.0248 69.0089 55.696 69.3876 58.3247C69.4076 58.4661 69.656 58.4661 69.6769 58.3247C70.0319 55.86 70.2583 53.3528 70.3782 50.8608C70.2955 50.8353 70.2155 50.8033 70.1318 50.7797L68.6577 50.3622ZM33.8858 72.1149H67.1142C73.1703 72.1149 78.0968 67.2345 78.0968 61.2371C78.0968 57.1757 75.7767 53.4961 72.251 51.6365C72.1197 53.9608 71.8913 56.2935 71.5601 58.5914C71.4165 59.5839 70.5448 60.3332 69.5323 60.3332C68.5197 60.3332 67.6481 59.5839 67.5044 58.5905C67.0866 55.696 66.8325 52.7505 66.7317 49.8221C65.4517 49.4668 64.1623 49.1519 62.8634 48.8814C62.8453 52.5913 62.5741 56.3312 62.044 60.0043C61.9003 60.9977 61.0286 61.747 60.0161 61.747C59.0036 61.747 58.1319 60.9977 57.9882 60.0043C57.4392 56.2002 57.1613 52.3245 57.1613 48.4846V47.9804C55.8966 47.8409 54.6271 47.7438 53.3548 47.6844V50.3697C53.3548 54.2096 53.077 58.0862 52.5279 61.8903C52.3842 62.8828 51.5125 63.6321 50.5 63.6321C49.4875 63.6321 48.6158 62.8828 48.4721 61.8894C47.923 58.0853 47.6452 54.2096 47.6452 50.3697V47.6844C46.3729 47.7438 45.1034 47.8409 43.8387 47.9804V48.4846C43.8387 52.3245 43.5608 56.2012 43.0118 60.0052C42.8681 60.9977 41.9964 61.747 40.9839 61.747C39.9714 61.747 39.0997 60.9977 38.956 60.0043C38.4259 56.3312 38.1547 52.5913 38.1366 48.8814C36.8377 49.151 35.5483 49.4668 34.2683 49.8221C34.1684 52.7505 33.9134 55.6969 33.4956 58.5905C33.3519 59.5839 32.4803 60.3332 31.4677 60.3332C30.4552 60.3332 29.5835 59.5839 29.4399 58.5905C29.1087 56.2926 28.8803 53.9608 28.749 51.6365C25.2233 53.4961 22.9032 57.1757 22.9032 61.2371C22.9032 67.2345 27.8297 72.1149 33.8858 72.1149V72.1149Z" fill="#234cad"/>
<rect x="1" y="1" width="98" height="98" rx="14" stroke="#234cad" stroke-width="2"/>
</svg>

<svg width="60" height="60" viewBox="0 0 100 100" fill="none" xmlns="http://www.w3.org/2000/svg"><path d="M30.345 48.966l.408-.116-2.095-2.075c-5.025-4.976-5.025-13.073 0-18.049 4.047-4.008 10.367-4.885 15.37-2.13l2.812 1.547a62.023 62.023 0 0113.754 10.275 61.751 61.751 0 018.174 10.015l1.887.533C76.157 50.523 80 55.57 80 61.237 80 68.275 74.22 74 67.114 74h-33.23C26.78 74 21 68.275 21 61.237c0-5.668 3.843-10.714 9.345-12.27zm.277 1.894c.12 2.492.346 4.999.701 7.464.02.141.268.141.29 0 .378-2.628.617-5.3.73-7.963l-1.475.418c-.083.023-.163.055-.246.08zm12.481-22.617c-.076-.042-.155-.076-.232-.115a80.085 80.085 0 00-4.833 5.77.145.145 0 00.203.202 80.306 80.306 0 006.201-5.12l-1.339-.737zm3.087 1.704a82.512 82.512 0 01-6.806 5.66c-.363.27-.795.403-1.227.403-.53 0-1.057-.2-1.452-.59a2.025 2.025 0 01-.19-2.653 81.798 81.798 0 014.495-5.396c-3.824-1.162-8.102-.187-11.006 2.69a10.816 10.816 0 000 15.383l2.843 2.815.591-.167a62.667 62.667 0 0116.313-2.343 81.978 81.978 0 015.507-6.046l1.918-1.9a59.338 59.338 0 00-2.904-2.455l-.36.356a82.317 82.317 0 01-8.809 7.566c-.363.271-.796.404-1.227.404-.53 0-1.056-.2-1.451-.591a2.024 2.024 0 01-.19-2.652 81.691 81.691 0 017.361-8.439 59.55 59.55 0 00-3.406-2.045zm-4.255 18.272c-.635.09-1.27.188-1.902.299.002 3.74.273 7.514.807 11.22.02.14.268.14.29 0 .533-3.716.805-7.502.805-11.253v-.266zm9.517-.594c-.317-.005-.634-.016-.952-.016-.318 0-.635.011-.952.016v2.744c0 3.751.273 7.537.807 11.253.02.141.269.141.29 0 .534-3.715.807-7.501.807-11.252v-2.745zm-.255-14.563a79.945 79.945 0 00-7.44 8.499.145.145 0 00.205.202 80.335 80.335 0 008.605-7.393l.19-.187a60.738 60.738 0 00-1.56-1.121zm7.366 6.033l-1.96 1.94c-1.518 1.505-2.967 3.1-4.365 4.73.653.017 1.304.047 1.956.085a80.153 80.153 0 003.756-3.482l1.953-1.934c-.22-.226-.43-.462-.655-.684-.225-.222-.457-.436-.685-.655zm6.115 7.273c-.268.265-.526.542-.79.811.685.15 1.369.31 2.05.484a60.39 60.39 0 00-1.083-1.47l-.177.175zm-3.004.37a80.488 80.488 0 011.659-1.703l.36-.356a60.649 60.649 0 00-2.482-2.875l-1.915 1.898a82.4 82.4 0 01-2.488 2.35c1.63.164 3.253.395 4.866.685zm-2.61 1.48v.267c0 3.75.273 7.537.807 11.253.02.14.269.14.29 0 .534-3.706.805-7.48.807-11.22a61.83 61.83 0 00-1.904-.3zm9.594 2.144c.112 2.663.35 5.334.73 7.963.02.141.268.141.289 0 .355-2.465.581-4.972.701-7.464-.082-.026-.162-.058-.246-.081l-1.474-.418zM33.886 72.115h33.228c6.056 0 10.983-4.88 10.983-10.878 0-4.061-2.32-7.74-5.846-9.6a80.833 80.833 0 01-.69 6.954 2.053 2.053 0 01-2.029 1.742 2.053 2.053 0 01-2.028-1.742 81.086 81.086 0 01-.772-8.769c-1.28-.355-2.57-.67-3.869-.94-.018 3.71-.289 7.45-.819 11.122a2.053 2.053 0 01-2.028 1.743 2.053 2.053 0 01-2.028-1.743 80.921 80.921 0 01-.827-11.52v-.504a60.414 60.414 0 00-3.806-.296v2.686c0 3.84-.278 7.716-.827 11.52a2.053 2.053 0 01-2.028 1.742 2.053 2.053 0 01-2.028-1.743 80.907 80.907 0 01-.827-11.52v-2.685c-1.272.06-2.542.157-3.806.296v.505c0 3.84-.278 7.716-.827 11.52a2.053 2.053 0 01-2.028 1.742 2.053 2.053 0 01-2.028-1.743 80.871 80.871 0 01-.82-11.123c-1.298.27-2.588.586-3.868.941a80.839 80.839 0 01-.772 8.768 2.053 2.053 0 01-2.028 1.743 2.053 2.053 0 01-2.028-1.742 80.812 80.812 0 01-.691-6.955c-3.526 1.86-5.846 5.54-5.846 9.601 0 5.997 4.927 10.878 10.983 10.878z" fill="#234cad"/><rect x="1" y="1" width="98" height="98" rx="14" stroke="#234cad" stroke-width="2"/></svg>
